public/favicon/safari-pinned-tab.svg

<?xml version="1.0" standalone="no"?>
<!DOCTYPE svg PUBLIC "-//W3C//DTD SVG 20010904//EN"
 "http://www.w3.org/TR/2001/REC-SVG-20010904/DTD/svg10.dtd">
<svg version="1.0" xmlns="http://www.w3.org/2000/svg"
 width="700.000000pt" height="700.000000pt" viewBox="0 0 700.000000 700.000000"
 preserveAspectRatio="xMidYMid meet">
<metadata>
Created by potrace 1.14, written by Peter Selinger 2001-2017
</metadata>
<g transform="translate(0.000000,700.000000) scale(0.100000,-0.100000)"
fill="#000000" stroke="none">
<path d="M3437 6964 c-1 -1 -61 -5 -134 -9 -73 -3 -143 -8 -155 -10 -13 -2
-50 -7 -83 -10 -87 -11 -92 -12 -190 -29 -49 -9 -135 -28 -190 -42 -55 -14
-104 -26 -110 -28 -88 -22 -355 -114 -370 -127 -5 -5 -15 -9 -23 -9 -24 0
-352 -165 -467 -235 -142 -87 -242 -157 -390 -276 -114 -90 -329 -296 -425
-404 -237 -270 -448 -606 -590 -939 -41 -97 -109 -284 -115 -319 -2 -9 -6 -21
-9 -25 -6 -10 -65 -236 -72 -276 -2 -17 -7 -38 -9 -46 -2 -8 -7 -31 -10 -50
-3 -19 -7 -46 -10 -60 -48 -258 -61 -675 -30 -930 3 -19 7 -59 11 -88 3 -29 7
-63 10 -75 2 -12 9 -51 15 -87 5 -36 14 -81 19 -100 5 -19 12 -51 15 -70 19
-113 115 -403 193 -585 84 -197 166 -349 291 -540 36 -55 69 -104 73 -110 5
-5 45 -57 90 -115 87 -111 103 -130 213 -248 74 -78 147 -149 230 -223 27 -24
56 -50 65 -58 39 -38 297 -224 381 -276 313 -194 626 -329 973 -421 55 -14
109 -28 120 -30 12 -2 32 -6 46 -9 43 -9 193 -34 235 -40 22 -3 54 -7 70 -10
165 -24 635 -25 776 0 13 2 47 7 74 10 44 5 106 14 185 29 449 82 927 283
1320 554 226 156 524 424 686 617 273 325 476 677 619 1070 50 138 127 423
122 453 -15 87 -118 135 -185 86 -31 -23 -58 -73 -67 -123 -3 -19 -8 -37 -10
-41 -2 -3 -6 -17 -9 -31 -18 -89 -102 -337 -151 -444 -107 -235 -190 -384
-308 -555 -315 -451 -724 -807 -1212 -1054 -77 -39 -158 -79 -180 -88 -94 -39
-196 -77 -275 -102 -47 -15 -105 -33 -130 -41 -57 -18 -222 -56 -310 -70 -25
-4 -52 -9 -61 -10 -9 -2 -40 -6 -70 -10 -30 -3 -65 -8 -79 -10 -47 -7 -224
-17 -320 -18 -101 0 -345 11 -370 18 -8 2 -40 7 -70 10 -30 3 -77 10 -105 15
-27 5 -61 12 -75 14 -287 53 -577 153 -859 296 -624 319 -1127 829 -1431 1455
-43 88 -96 208 -119 267 -38 98 -106 319 -117 378 -3 14 -10 43 -16 65 -5 22
-12 49 -14 60 -2 11 -6 31 -8 45 -3 14 -8 43 -11 65 -5 38 -9 61 -20 130 -26
158 -26 706 0 805 2 8 6 35 9 60 3 25 8 55 10 66 2 12 7 38 10 59 4 20 20 94
36 163 183 768 652 1449 1310 1903 95 65 242 155 268 163 29 9 88 -10 99 -32
4 -9 10 -1051 13 -2315 l5 -2299 37 -34 c29 -26 46 -34 75 -34 47 0 100 31
115 68 8 19 12 254 12 827 l1 800 23 33 c46 64 -25 60 1142 59 1150 -2 1082 1
1125 -55 20 -26 20 -47 25 -844 l5 -818 31 -31 c56 -56 148 -47 191 18 17 25
18 83 18 834 0 802 0 808 21 836 45 61 -10 58 1032 60 853 1 956 3 977 17 78
51 79 159 3 206 -32 20 -48 20 -983 20 -924 0 -951 1 -982 20 -18 10 -40 31
-50 46 -17 27 -18 93 -18 1303 -1 702 3 1287 7 1302 11 31 59 61 91 55 43 -8
255 -134 404 -240 570 -406 990 -978 1202 -1636 22 -69 50 -168 63 -220 27
-114 52 -148 115 -157 73 -10 126 28 138 97 10 54 -76 355 -165 580 -335 845
-1023 1545 -1875 1907 -182 78 -492 177 -625 199 -14 3 -38 7 -55 11 -121 27
-304 50 -470 58 -119 7 -255 11 -258 9z m363 -257 c14 -3 51 -8 84 -12 200
-23 585 -115 651 -155 17 -10 41 -34 55 -52 l25 -33 3 -1364 c2 -1355 2 -1363
-18 -1396 -43 -69 26 -65 -1142 -65 -1026 0 -1054 1 -1085 20 -18 10 -40 31
-50 47 -17 26 -18 93 -18 1373 l0 1347 28 42 c20 30 44 50 80 67 52 23 339
109 400 119 18 3 66 12 107 20 41 8 98 17 125 21 28 4 59 8 69 10 10 2 58 6
105 10 47 4 88 8 89 9 6 5 464 -3 492 -8z"/>
</g>
</svg>

<?xml version="1.0" encoding="UTF-8" standalone="no"?>
<!DOCTYPE svg PUBLIC "-//W3C//DTD SVG 1.1//EN" "http://www.w3.org/Graphics/SVG/1.1/DTD/svg11.dtd">
<svg width="100%" height="100%" viewBox="0 0 1024 1024" version="1.1" xmlns="http://www.w3.org/2000/svg" xmlns:xlink="http://www.w3.org/1999/xlink" xml:space="preserve" xmlns:serif="http://www.serif.com/" style="fill-rule:evenodd;clip-rule:evenodd;stroke-linejoin:round;stroke-miterlimit:2;">
    <g transform="matrix(0.146725,0,0,-0.146725,-0.785035,1025.42)">
        <path d="M3437,6964C3436,6963 3376,6959 3303,6955C3230,6952 3160,6947 3148,6945C3135,6943 3098,6938 3065,6935C2978,6924 2973,6923 2875,6906C2826,6897 2740,6878 2685,6864C2630,6850 2581,6838 2575,6836C2487,6814 2220,6722 2205,6709C2200,6704 2190,6700 2182,6700C2158,6700 1830,6535 1715,6465C1573,6378 1473,6308 1325,6189C1211,6099 996,5893 900,5785C663,5515 452,5179 310,4846C269,4749 201,4562 195,4527C193,4518 189,4506 186,4502C180,4492 121,4266 114,4226C112,4209 107,4188 105,4180C103,4172 98,4149 95,4130C92,4111 88,4084 85,4070C37,3812 24,3395 55,3140C58,3121 62,3081 66,3052C69,3023 73,2989 76,2977C78,2965 85,2926 91,2890C96,2854 105,2809 110,2790C115,2771 122,2739 125,2720C144,2607 240,2317 318,2135C402,1938 484,1786 609,1595C645,1540 678,1491 682,1485C687,1480 727,1428 772,1370C859,1259 875,1240 985,1122C1059,1044 1132,973 1215,899C1242,875 1271,849 1280,841C1319,803 1577,617 1661,565C1974,371 2287,236 2634,144C2689,130 2743,116 2754,114C2766,112 2786,108 2800,105C2843,96 2993,71 3035,65C3057,62 3089,58 3105,55C3270,31 3740,30 3881,55C3894,57 3928,62 3955,65C3999,70 4061,79 4140,94C4589,176 5067,377 5460,648C5686,804 5984,1072 6146,1265C6419,1590 6622,1942 6765,2335C6815,2473 6892,2758 6887,2788C6872,2875 6769,2923 6702,2874C6671,2851 6644,2801 6635,2751C6632,2732 6627,2714 6625,2710C6623,2707 6619,2693 6616,2679C6598,2590 6514,2342 6465,2235C6358,2000 6275,1851 6157,1680C5842,1229 5433,873 4945,626C4868,587 4787,547 4765,538C4671,499 4569,461 4490,436C4443,421 4385,403 4360,395C4303,377 4138,339 4050,325C4025,321 3998,316 3989,315C3980,313 3949,309 3919,305C3889,302 3854,297 3840,295C3793,288 3616,278 3520,277C3419,277 3175,288 3150,295C3142,297 3110,302 3080,305C3050,308 3003,315 2975,320C2948,325 2914,332 2900,334C2613,387 2323,487 2041,630C1417,949 914,1459 610,2085C567,2173 514,2293 491,2352C453,2450 385,2671 374,2730C371,2744 364,2773 358,2795C353,2817 346,2844 344,2855C342,2866 338,2886 336,2900C333,2914 328,2943 325,2965C320,3003 316,3026 305,3095C279,3253 279,3801 305,3900C307,3908 311,3935 314,3960C317,3985 322,4015 324,4026C326,4038 331,4064 334,4085C338,4105 354,4179 370,4248C553,5016 1022,5697 1680,6151C1775,6216 1922,6306 1948,6314C1977,6323 2036,6304 2047,6282C2051,6273 2057,5231 2060,3967L2065,1668L2102,1634C2131,1608 2148,1600 2177,1600C2224,1600 2277,1631 2292,1668C2300,1687 2304,1922 2304,2495L2305,3295L2328,3328C2374,3392 2303,3388 3470,3387C4620,3385 4552,3388 4595,3332C4615,3306 4615,3285 4620,2488L4625,1670L4656,1639C4712,1583 4804,1592 4847,1657C4864,1682 4865,1740 4865,2491C4865,3293 4865,3299 4886,3327C4931,3388 4876,3385 5918,3387C6771,3388 6874,3390 6895,3404C6973,3455 6974,3563 6898,3610C6866,3630 6850,3630 5915,3630C4991,3630 4964,3631 4933,3650C4915,3660 4893,3681 4883,3696C4866,3723 4865,3789 4865,4999C4864,5701 4868,6286 4872,6301C4883,6332 4931,6362 4963,6356C5006,6348 5218,6222 5367,6116C5937,5710 6357,5138 6569,4480C6591,4411 6619,4312 6632,4260C6659,4146 6684,4112 6747,4103C6820,4093 6873,4131 6885,4200C6895,4254 6809,4555 6720,4780C6385,5625 5697,6325 4845,6687C4663,6765 4353,6864 4220,6886C4206,6889 4182,6893 4165,6897C4044,6924 3861,6947 3695,6955C3576,6962 3440,6966 3437,6964ZM3800,6707C3814,6704 3851,6699 3884,6695C4084,6672 4469,6580 4535,6540C4552,6530 4576,6506 4590,6488L4615,6455L4618,5091C4620,3736 4620,3728 4600,3695C4557,3626 4626,3630 3458,3630C2432,3630 2404,3631 2373,3650C2355,3660 2333,3681 2323,3697C2306,3723 2305,3790 2305,5070L2305,6417L2333,6459C2353,6489 2377,6509 2413,6526C2465,6549 2752,6635 2813,6645C2831,6648 2879,6657 2920,6665C2961,6673 3018,6682 3045,6686C3073,6690 3104,6694 3114,6696C3124,6698 3172,6702 3219,6706C3266,6710 3307,6714 3308,6715C3314,6720 3772,6712 3800,6707Z" style="fill-rule:nonzero;" fill="#FFFFFF"/>
    </g>
</svg>
